!!!COM: Music21
!!!OTL: waltz_Gamekeepers-Cottage--The
!!!OMV: waltz_Gamekeepers-Cottage--The
**kern
*clefG2
*k[f#]
*G:
*M3/4
=1
16gLL
16f#
16d
16f#JJ
=
4g
8.gL
16aJk
16bLL
16a
16g
16aJJ
=
4b
4b
16ddLL
16cc
16b
16ccJJ
=
4dd
4gg
16ggLL
16ff#J
8ddJ
=
2ee
16gLL
16f#
16d
16f#JJ
=
4g
8.gL
16aJk
16bLL
16a
16g
16aJJ
!!linebreak:original
=
4b
4b
16ddLL
16cc
16b
16ccJJ
=
8ddL
8gJ
16bLL
16aJ
8f#J
4ryy
=
2g
4ryy
=||
*M3/4
16gLL
16f#
16d
16f#JJ
=
4g
8.gL
16aJk
16bLL
16a
16g
16aJJ
=
4b
4b
16ddLL
16cc
16b
16ccJJ
=
4dd
4gg
16ggLL
16ff#J
8ddJ
!!linebreak:original
=
2ee
16gLL
16f#
16d
16f#JJ
=
4g
8.gL
16aJk
16bLL
16a
16g
16aJJ
=
4b
4b
16ddLL
16cc
16b
16ccJJ
=
8ddL
8gJ
16bLL
16aJ
8f#J
4ryy
=
2g
4ryy
=||
8.bL
16ccJk
2ryy
=
8ddL
8ggJ
8ggL
8ddJ
4ryy
!!linebreak:original
=
2ee
16ddLL
16cc
16b
16ccJJ
=
8ddL
8gJ
16bLL
16aJ
8dJ
4ryy
=
2e
8.bL
16ccJk
=
8ddL
8ggJ
8ggL
8ddJ
4ryy
=
2ee
16ddLL
16cc
16b
16ccJJ
=
8ddL
8gJ
16bLL
16aJ
8f#J
4ryy
=
2g
8.bL
16ccJk
=
8ddL
8ggJ
8ggL
8ddJ
4ryy
!!linebreak:original
=
2ee
16ddLL
16cc
16b
16ccJJ
=
8ddL
8gJ
16bLL
16aJ
8dJ
4ryy
=
2e
16gLL
16f#
16d
16f#JJ
=
4g
8.gL
16aJk
16bLL
16a
16g
16aJJ
=
4b
4b
16ddLL
16cc
16b
16ccJJ
=
8ddL
8gJ
16bLL
16aJ
8f#J
4ryy
=
2g
4ryy
=||
*-
